lib/svgs/team-loudspeaker.svg

<?xml version="1.0" encoding="UTF-8"?>
<svg width="16px" height="16px" viewBox="0 0 16 16" version="1.1" xmlns="http://www.w3.org/2000/svg" xmlns:xlink="http://www.w3.org/1999/xlink">
    <!-- Generator: sketchtool 51.3 (57544) - http://www.bohemiancoding.com/sketch -->
    <title>team/team-loudspeaker</title>
    <desc>Created with sketchtool.</desc>
    <defs></defs>
    <g id="Icons" stroke="none" stroke-width="1" fill="none" fill-rule="evenodd">
        <g id="Web" transform="translate(-339.000000, -2444.000000)" fill="#000000">
            <g id="team/team-loudspeaker" transform="translate(339.000000, 2444.000000)">
                <path d="M12.6666667,0.5 C10.6666667,0.5 8.8,1.5 7.66666667,3.16666667 L5.33333333,3.16666667 L4.66666667,3.16666667 L2,3.16666667 C0.866666667,3.16666667 0,4.56666667 0,6.5 C0,8.43333333 0.866666667,9.83333333 2,9.83333333 L3.53333333,9.83333333 L6.4,14.7 C6.8,15.3666667 7.6,15.5666667 8.2,15.1666667 C8.86666667,14.7666667 9.06666667,13.9666667 8.66666667,13.3666667 L6.6,9.83333333 L7.66666667,9.83333333 C8.8,11.5 10.6666667,12.5 12.6666667,12.5 C14.6,12.5 16,9.9 16,6.5 C16,3.1 14.6,0.5 12.6666667,0.5 M12.6666667,11.1666667 C12.0666667,11.1666667 11.4,10.3 11,8.96666667 C12,8.56666667 12.6666667,7.63333333 12.6666667,6.5 C12.6666667,5.36666667 12,4.43333333 11,4.03333333 C11.4,2.7 12.0666667,1.83333333 12.6666667,1.83333333 C13.6,1.83333333 14.6666667,3.83333333 14.6666667,6.5 C14.6666667,9.16666667 13.6,11.1666667 12.6666667,11.1666667" id="Shape"></path>
            </g>
        </g>
    </g>
</svg>

<svg xmlns="http://www.w3.org/2000/svg" viewBox="0 0 16 16">
    <path d="M12.667.5c-2 0-3.867 1-5 2.667H2c-1.133 0-2 1.4-2 3.333 0 1.933.867 3.333 2 3.333h1.533L6.4 14.7c.4.667 1.2.867 1.8.467.667-.4.867-1.2.467-1.8L6.6 9.833h1.067a6.05 6.05 0 0 0 5 2.667C14.6 12.5 16 9.9 16 6.5s-1.4-6-3.333-6m0 10.667c-.6 0-1.267-.867-1.667-2.2 1-.4 1.667-1.334 1.667-2.467A2.616 2.616 0 0 0 11 4.033c.4-1.333 1.067-2.2 1.667-2.2.933 0 2 2 2 4.667s-1.067 4.667-2 4.667"/>
</svg>
